X: 2351
T: COQUETTE HORNPIPE
%R: hornpipe, reel
B: James Kerr "Merry Melodies" v.2 p.39 #351
Z: 2016 John Chambers <jc:trillian.mit.edu>
M: C
L: 1/8
K: G
(dc) |\
BGBd BGBd | gfge dBGB |\
ecdB cBAG |[1 F2A2A2 :|[2 D2G2G2 ||\
(dc) |\
Bgdg Bgdg |
Bgba gfed |\
caea caea | ceag fedc |\
BgdB AecA | GdBG (AF)D2 |\
ecdB cBAG | D2G2G2 |]

%%sep 1 1 500
%%sep 1 1 500

